svgs/thin/circle-camera.svg

<svg xmlns="http://www.w3.org/2000/svg" viewBox="0 0 512 512"><!-- Font Awesome Pro 6.0.0-alpha2 by @fontawesome - https://fontawesome.com License - https://fontawesome.com/license (Commercial License) --><path d="M256 16C123.451 16 16 123.451 16 256S123.451 496 256 496S496 388.549 496 256S388.549 16 256 16ZM256 480C132.486 480 32 379.514 32 256S132.486 32 256 32S480 132.486 480 256S379.514 480 256 480ZM352 160H316L309.812 143.562C306.312 134.188 297.375 128 287.375 128H224.625C214.625 128 205.625 134.188 202.125 143.562L196 160H160C142.326 160 128 174.326 128 192V320C128 337.672 142.326 352 160 352H352C369.674 352 384 337.672 384 320V192C384 174.326 369.674 160 352 160ZM368 320C368 328.822 360.822 336 352 336H160C151.178 336 144 328.822 144 320V192C144 183.178 151.178 176 160 176H207.113L210.992 165.586L217.115 149.158C218.266 146.072 221.285 144 224.625 144H287.375C290.73 144 293.652 146.025 294.838 149.199L301.025 165.637L304.926 176H352C360.822 176 368 183.178 368 192V320ZM256 208C229.5 208 208 229.5 208 256S229.5 304 256 304S304 282.5 304 256S282.5 208 256 208ZM256 288C238.355 288 224 273.645 224 256S238.355 224 256 224S288 238.355 288 256S273.645 288 256 288Z"/></svg>

<svg xmlns="http://www.w3.org/2000/svg" viewBox="0 0 512 512"><!--! Font Awesome Pro 6.3.0 by @fontawesome - https://fontawesome.com License - https://fontawesome.com/license (Commercial License) Copyright 2023 Fonticons, Inc. --><path d="M256 208C229.5 208 208 229.5 208 256S229.5 304 256 304s48-21.5 48-48S282.5 208 256 208zM256 288C238.4 288 224 273.6 224 256s14.36-32 32-32s32 14.36 32 32S273.6 288 256 288zM352 160h-36l-6.188-16.44C306.3 134.2 297.4 128 287.4 128H224.6c-10 0-19 6.188-22.5 15.56L196 160H160C142.3 160 128 174.3 128 192v128c0 17.67 14.33 32 32 32h192c17.67 0 32-14.33 32-32V192C384 174.3 369.7 160 352 160zM368 320c0 8.822-7.178 16-16 16H160c-8.822 0-16-7.178-16-16V192c0-8.822 7.178-16 16-16h47.11l10-26.84C218.3 146.1 221.3 144 224.6 144h62.75c3.355 0 6.277 2.025 7.463 5.199L304.9 176H352c8.822 0 16 7.178 16 16V320zM256 0C114.6 0 0 114.6 0 256s114.6 256 256 256s256-114.6 256-256S397.4 0 256 0zM256 496c-132.3 0-240-107.7-240-240S123.7 16 256 16s240 107.7 240 240S388.3 496 256 496z"/></svg>
